data/zilliqa/assets/zil18prrzet4cwf96nvk50le04pa73du4cyvklltdv/logo.svg

<svg width="298" height="298" viewBox="0 0 298 298" fill="none" xmlns="http://www.w3.org/2000/svg">
<path d="M149 298C231.29 298 298 231.29 298 149C298 66.7096 231.29 0 149 0C66.7096 0 0 66.7096 0 149C0 231.29 66.7096 298 149 298Z" fill="#161212"/>
<path d="M149 297.25C230.876 297.25 297.25 230.876 297.25 149C297.25 67.1238 230.876 0.75 149 0.75C67.1238 0.75 0.75 67.1238 0.75 149C0.75 230.876 67.1238 297.25 149 297.25Z" stroke="#161212" stroke-width="1.5"/>
<path d="M149.575 3.45375L3.76633 149.262L149.575 295.07L295.383 149.262L149.575 3.45375Z" stroke="#F9FFFB" stroke-opacity="0.92" stroke-width="3"/>
<path d="M149.178 5.1896L97.3755 95.4267L150.19 291.919L202.266 202.276L149.178 5.1896ZM149.851 -0.00037907L204.414 202.56L149.506 297.078L95.2295 95.1477L149.851 -0.00037907Z" fill="#EFF5EF"/>
<path d="M96.6528 95.3847L5.66267 148.898L203.427 202.483L293.279 149.523L96.6528 95.3847ZM96.5105 94.3083L295.82 149.186L203.572 203.558L3.10623 149.241L96.5105 94.3083Z" fill="#F0F5EF"/>
</svg>

<svg xmlns="http://www.w3.org/2000/svg" viewBox="0 0 298 298"><defs><style>.a{fill:#161212;}.b,.c{fill:none;}.b{stroke:#161212;stroke-width:1.5px;}.d{fill:#eff5ef;}.e{fill:#f0f5ef;}</style></defs><title>ALE</title><circle class="a" cx="149" cy="149" r="149"/><circle class="b" cx="149" cy="149" r="148.25"/><rect class="c" x="44.97" y="44.66" width="209.2" height="209.2" transform="translate(-61.73 149.48) rotate(-45)"/><rect class="c" x="46.47" y="46.16" width="206.2" height="206.2" transform="translate(-61.73 149.48) rotate(-45)"/><path class="c" d="M95.23,95.15,149.85,0l54.56,202.56-54.9,94.52Z" transform="translate(0 0)"/><path class="d" d="M149.18,5.19,97.38,95.43l52.81,196.49,52.08-89.64L149.18,5.19M149.85,0l54.56,202.56-54.9,94.52L95.23,95.15Z" transform="translate(0 0)"/><path class="c" d="M96.51,94.31l199.31,54.88-92.25,54.37L3.11,149.24Z" transform="translate(0 0)"/><path class="e" d="M96.65,95.38l-91,53.52,197.77,53.58,89.85-53L96.65,95.38m-.14-1.07,199.31,54.88-92.25,54.37L3.11,149.24Z" transform="translate(0 0)"/></svg>
